X: 1
T:Calleno Casturame
M:6/4
L:1/4
S:BALLET LUTE BOOK (c1593)
B:Sources of irish traditional Music
N: Trinity Coll.Lib, Dublin, MS 40
Z:p
K:C
e2ee2e|f2fe3|d2dd2d|e>ded3||efggfe|d>edB2G|A2de>fe|d>cdc2
% Output from ABC2Win  Version 2.1 f on 14/07/2002
